svg/600/outlined/zoom_in_map-fill.svg

<svg xmlns="http://www.w3.org/2000/svg" width="48" height="48" viewBox="0 -960 960 960"><path d="M145.261-88.13 88.13-145.26l137.39-137.392H105.869v-79.218H361.87v256.001h-79.218v-119.652L145.261-88.13Zm669.478 0L677.913-225.52v119.652H598.13V-361.87h256.566v79.218H734.479L871.87-145.261 814.739-88.13Zm-708.87-510v-79.783h119.652L88.13-814.739l57.131-57.131 137.391 137.391v-120.217h79.218v256.566H105.869Zm492.261 0v-256.566h79.783v120.217L815.739-872.87l57.131 57.131-138.391 137.826h120.217v79.783H598.13Z"/></svg>

<svg xmlns="http://www.w3.org/2000/svg" width="48" height="48" viewBox="0 -960 960 960"><path d="m145.26-88.13-57.13-57.13 137.39-137.39H105.87v-79.22h256v256h-79.22v-119.65L145.26-88.13Zm669.48 0L677.91-225.52v119.65h-79.78v-256H854.7v79.22H734.48l137.39 137.39-57.13 57.13Zm-708.87-510v-79.78h119.65L88.13-814.74l57.13-57.13 137.39 137.39V-854.7h79.22v256.57h-256Zm492.26 0V-854.7h79.78v120.22l137.83-138.39 57.13 57.13-138.39 137.83H854.7v79.78H598.13Z"/></svg>
